icon/ir/question-square-outline.svg

<svg stroke-width="1.5" viewBox="0 0 24 24" fill="none" xmlns="http://www.w3.org/2000/svg" height="1em" width="1em">
  <path d="M9 9C9 5.49997 14.5 5.5 14.5 9C14.5 11.5 12 10.9999 12 13.9999" stroke="currentColor" stroke-linecap="round" stroke-linejoin="round"/>
  <path d="M12 18.01L12.01 17.9989" stroke="currentColor" stroke-linecap="round" stroke-linejoin="round"/>
  <path d="M3 20.4V3.6C3 3.26863 3.26863 3 3.6 3H20.4C20.7314 3 21 3.26863 21 3.6V20.4C21 20.7314 20.7314 21 20.4 21H3.6C3.26863 21 3 20.7314 3 20.4Z" stroke="currentColor" stroke-width="1.5"/>
</svg>

<svg width="24" height="24" stroke-width="1.5" fill="none" xmlns="http://www.w3.org/2000/svg"><path d="M9 9c0-3.5 5.5-3.5 5.5 0 0 2.5-2.5 2-2.5 5M12 18.01l.01-.011" stroke="currentColor" stroke-linecap="round" stroke-linejoin="round"/><path d="M3 20.4V3.6a.6.6 0 0 1 .6-.6h16.8a.6.6 0 0 1 .6.6v16.8a.6.6 0 0 1-.6.6H3.6a.6.6 0 0 1-.6-.6Z" stroke="currentColor"/></svg>
